mobile/24/svg/pin-fill-24.svg

<svg width="24" height="24" viewBox="0 0 24 24" fill="none" xmlns="http://www.w3.org/2000/svg">
<path d="M12.1717 3.23768L10.7802 4.62918L14.603 8.45201L18.467 8.53801C19.23 8.55601 19.881 9.00601 20.165 9.71401C20.45 10.423 20.291 11.198 19.751 11.738L16.3632 15.1258L21.9997 20.7622L20.7622 21.9997L15.1258 16.3632L11.737 19.752C11.375 20.114 10.905 20.305 10.422 20.305C10.186 20.305 9.94601 20.26 9.71301 20.166C9.01501 19.887 8.55301 19.22 8.53601 18.468L8.45101 14.604L4.62861 10.7808L3.23768 12.1717L2.00024 10.9342L10.9342 2.00024L12.1717 3.23768Z" fill="black"/>
</svg>

<svg width="24" height="24" fill="none" xmlns="http://www.w3.org/2000/svg"><path d="M12.172 3.238 10.78 4.629l3.823 3.823 3.864.086a1.85 1.85 0 0 1 1.698 1.176 1.847 1.847 0 0 1-.414 2.024l-3.388 3.388L22 20.762 20.762 22l-5.636-5.637-3.389 3.389a1.853 1.853 0 0 1-2.024.414 1.871 1.871 0 0 1-1.177-1.698l-.085-3.864-3.822-3.823-1.391 1.39L2 10.935 10.934 2l1.238 1.238z" fill="#000"/></svg>
